X: 244
T: No_98_Black_Grass_Dance_Song_(c).krn
N: Derived from No_98_Black_Grass_Dance_Song_(c).krn
%%abc-version 2.0
%%abcx-abcm2ps-target-version 5.9.1 (29 Sep 2008)
%%abc-creator hum2abc beta
%%abcx-conversion-date 2019/03/15 08:38:45
%%humdrum-veritas 1154708539
%%humdrum-veritas-data 135969193
%%linebreak <none>
%%barnumbers 0
L: 1/8
M: 2/4
K: G clef=bass
[K:clef=bass][M:2/4]DD (D/A,/)A, [I:setbarnb 2]| 
(B,/A,/)A, (G,/D,/)D, | 
E,D,D,2 | 
D,2z2 | 
G,G, G,A, | 
(B,/A,/)A, (G,/D,/)D, ||  
[M:3/4](E,D,)D,2D,2 :|]  



